X: 26443
T: Merthyr, The
R: hornpipe
M: 4/4
K: Gmajor
f|:gdBd ecA2|BdBG FAFD|G2BG cABG|FADA fadf|
gdBd ecA2|BdBG (3FFF Ff|gfge dcBA|(3GAB FA G2f2:|
gdBd gfga|b2bg afed|e2ed BdBG|FADA FADf|
gdBd gdga|b2bg afed|cege dfaf|(3ggg gf g2f2:|

